src/pos-icons/align-horizontal-right.svg

<svg height="24" viewBox="0 0 24 24" width="24" xmlns="http://www.w3.org/2000/svg"><path d="m18 13v6h-16v-6zm-10-8v6h10v-6zm12-3v20h2v-20z"/></svg>

<?xml version="1.0" encoding="UTF-8"?><!DOCTYPE svg PUBLIC "-//W3C//DTD SVG 1.1//EN" "http://www.w3.org/Graphics/SVG/1.1/DTD/svg11.dtd"><svg xmlns="http://www.w3.org/2000/svg" xmlns:xlink="http://www.w3.org/1999/xlink" version="1.1" id="mdi-align-horizontal-right" width="24" height="24" viewBox="0 0 24 24"><path d="M18 13V19H2V13H18M8 5V11H18V5H8M20 2V22H22V2H20Z" /></svg>
